X:1
T:Deutschlandlied
T:Das Lied der Deutschen
T:Franz Joseph Haydn
T:August Heinrich Hoffmann von Fallersleben
C:Joseph Haydn
Z:August Heinrich Hoffmann von Fallersleben
%%score [ 1 2 3 4 ]
L:1/8
M:4/2
K:E
V:1 treble nm="Soprano"
V:2 treble nm="Alto"
V:3 treble-8 nm="Tenor"
V:4 bass nm="Bass"
V:1
 E6 F2 G4 F4 | A4 G4 (F2 D2) E4 | c4 B4 A4 G4 | F4 (G2 E2) B8 | E6 F2 G4 F4 | A4 G4 (F2 D2) E4 | %6
w: 1.Deutsch- land, Deutsch- land|ü- ber al- * les,|Ü- ber al- les|in der _ Welt,|Wenn es stets zu|Schutz und Trut- * ze|
w: 2.Deutsch- e Frau- en,|deutsch- e Treu- * e,|Deutsch- er Wein und|deutsch- er _ Sang|Sol- len in der|Welt be- halt- * en|
w: 3.Ei- nig- keit und|Recht und Frei- * heit|Für das deutsch- e|Va- ter- * land!|Da- nach lasst uns|al- le stre- * ben|
 c4 B4 A4 G4 | F4 (G2 E2) B8 | F4 G4 (F2 D2) B,4 | A4 G4 (F2 D2) B,4 | B4 A4 G6 G2 | ^A6 A2 B8 |: %12
w: Brü- der- lich zu-|sam- men- * hält.|Von der Maas _ bis|an die Me- * mel,|Von der Etsch bis|an den Belt,|
w: Ihr- en alt- en|schön- en _ Klang,|Und zu ed- * ler|Tat be- geist- * ern|Uns- er gan- zes|Le- ben lang.|
w: Brü- der- lich mit|Herz und _ Hand!|Ein- ig- keit _ und|Recht und Frei- * heit|Sind des Glück- es|Un- ter- pfand;|
 e6 d2 c4 B4 | c6 B2 (B2 A2) G4 | F4 (G2 A2) (B2 c2) (A2 F2) | E4 (G2 F2) E8 :| %16
w: Deutsch- land, Deutsch- land|ü- ber al- * les,|Ü- ber _ al- * les _|in der _ Welt!|
w: Deutsch- e Frau- en,|deutsch- e Treu- * e,|Deutsch- er _ Wein _ und _|deutsch- er _ Sang!|
w: Blüh' im Glan- ze|dies- es Glück- * es,|Blüh- e, _ deutsch- * es _|Va- ter- * land!|
V:2
 E6 E2 E4 D4 | F4 E4 B,4 B,4 | (C2 D2) E4 F4 E4 | F4 E4 D8 | E6 E2 E4 D4 | F4 E4 B,4 B,4 | %6
w: 1.Deutsch- land, Deutsch- land|ü- ber al- les,|Ü- * ber al- les|in der Welt,|Wenn es stets zu|Schutz und Trut- ze|
w: 2.Deutsch- e Frau- en,|deutsch- e Treu- e,|Deutsch- * er Wein und|deutsch- er Sang|Sol- len in der|Welt be- halt- en|
w: 3.Ei- nig- keit und|Recht und Frei- heit|Für _ das deutsch- e|Va- ter- land!|Da- nach lasst uns|al- le stre- ben|
 (C2 D2) E4 F4 E4 | F4 E4 D8 | B,4 B,4 B,4 B,4 | B,4 B,4 B,4 B,4 | B,4 (C2 D2) E6 E2 | E6 E2 D8 |: %12
w: Brü- * der- lich zu-|sam- men- hält.|Von der Maas bis|an die Me- mel,|Von der _ Etsch bis|an den Belt,|
w: Ihr- * en alt- en|schön- en Klang,|Und zu ed- ler|Tat be- geist- ern|Uns- er _ gan- zes|Le- ben lang.|
w: Brü- * der- lich mit|Herz und Hand!|Ein- ig- keit und|Recht und Frei- heit|Sind des _ Glück- es|Un- ter- pfand;|
 E6 E2 E4 E4 | E6 E2 D4 E4 | D4 D4 E4 C4 | B,4 D4 B,8 :| %16
w: Deutsch- land, Deutsch- land|ü- ber al- les,|Ü- ber al- les|in der Welt!|
w: Deutsch- e Frau- en,|deutsch- e Treu- e,|Deutsch- er Wein und|deutsch- er Sang!|
w: Blüh' im Glan- ze|dies- es Glück- es,|Blüh- e, deutsch- es|Va- ter- land!|
V:3
 G6 A2 B4 B4 | D4 E4 (A2 A2) G4 | A4 B4 B4 B4 | c4 c4 F8 | G6 A2 B4 B4 | D4 E4 A4 G4 | %6
w: 1.Deutsch- land, Deutsch- land|ü- ber al- * les,|Ü- ber al- les|in der Welt,|Wenn es stets zu|Schutz und Trut- ze|
w: 2.Deutsch- e Frau- en,|deutsch- e Treu- * e,|Deutsch- er Wein und|deutsch- er Sang|Sol- len in der|Welt be- halt- en|
w: 3.Ei- nig- keit und|Recht und Frei- * heit|Für das deutsch- e|Va- ter- land!|Da- nach lasst uns|al- le stre- ben|
 A4 B4 B4 B4 | c4 c4 F8 | D4 E4 D4 D4 | F4 E4 D4 D4 | G4 F4 E6 E2 | F6 c2 B8 |: B6 B2 A4 G4 | %13
w: Brü- der- lich zu-|sam- men- hält.|Von der Maas bis|an die Me- mel,|Von der Etsch bis|an den Belt,|Deutsch- land, Deutsch- land|
w: Ihr- en alt- en|schön- en Klang,|Und zu ed- ler|Tat be- geist- ern|Uns- er gan- zes|Le- ben lang.|Deutsch- e Frau- en,|
w: Brü- der- lich mit|Herz und Hand!|Ein- ig- keit und|Recht und Frei- heit|Sind des Glück- es|Un- ter- pfand;|Blüh' im Glan- ze|
 A6 B2 B4 B4 | B4 B4 (B2 E2) (c2 A2) | G4 (B2 A2) G8 :| %16
w: ü- ber al- les,|Ü- ber al- * les _|in der _ Welt!|
w: deutsch- e Treu- e,|Deutsch- er Wein _ und _|deutsch- er _ Sang!|
w: dies- es Glück- es,|Blüh- e, deutsch- * es _|Va- ter- * land!|
V:4
 E,6 E,2 E,4 B,,4 | B,,4 B,,4 B,,4 E,4 | A,4 G,4 D,4 E,4 | A,,4 ^A,,4 B,,8 | E,6 E,2 E,4 B,,4 | %5
w: 1.Deutsch- land, Deutsch- land|ü- ber al- les,|Ü- ber al- les|in der Welt,|Wenn es stets zu|
w: 2.Deutsch- e Frau- en,|deutsch- e Treu- e,|Deutsch- er Wein und|deutsch- er Sang|Sol- len in der|
w: 3.Ei- nig- keit und|Recht und Frei- heit|Für das deutsch- e|Va- ter- land!|Da- nach lasst uns|
 B,,4 B,,4 B,,4 E,4 | A,4 G,4 D,4 E,4 | A,,4 ^A,,4 B,,8 | B,,4 B,,4 B,,4 B,,4 | D,4 E,4 B,,4 B,,4 | %10
w: Schutz und Trut- ze|Brü- der- lich zu-|sam- men- hält.|Von der Maas bis|an die Me- mel,|
w: Welt be- halt- en|Ihr- en alt- en|schön- en Klang,|Und zu ed- ler|Tat be- geist- ern|
w: al- le stre- ben|Brü- der- lich mit|Herz und Hand!|Ein- ig- keit und|Recht und Frei- heit|
 G,,4 (A,,2 B,,2) C,6 C,2 | F,6 F,2 B,,8 |: G,6 G,2 A,4 E,4 | A,6 G,2 F,4 E,4 | %14
w: Von der _ Etsch bis|an den Belt,|Deutsch- land, Deutsch- land|ü- ber al- les,|
w: Uns- er _ gan- zes|Le- ben lang.|Deutsch- e Frau- en,|deutsch- e Treu- e,|
w: Sind des _ Glück- es|Un- ter- pfand;|Blüh' im Glan- ze|dies- es Glück- es,|
 B,,4 A,,4 G,,4 A,,4 | B,,4 B,,4 E,8 :| %16
w: Ü- ber al- les|in der Welt!|
w: Deutsch- er Wein und|deutsch- er Sang!|
w: Blüh- e, deutsch- es|Va- ter- land!|

